X: 22
T: Sean Bui
Z: swisspiper
S: https://thesession.org/tunes/235#setting50386
R: jig
M: 6/8
L: 1/8
K: Dmaj
|:D(3DDD AFA | {d}BGB A (3.F.G.A | D (3.F.G.A AFA | B2c {_e}dAF|
DFA AFA | Bcd ~A3 | dfd ecA | B2c d2A:|
dfd ecA | dcB AFA | dfd ecA | B2c d2A|
dfd ecA | dcB AFA | D(3DDD AFA | B2c d2A|
dfd ecA | dcB AFA | dfd ecA | B2c dfg|
afd gec | dcd AFA | D(3DDD AFA | B2c d2A||

%-------------------- TUNE SEPARATOR --------------------%

